X:1
T:Benedicta et venerabilis
T:Costanzo Porta
T:Benedicta et venerabilis
C:Costanzo Porta
%%score [ 1 2 3 4 ]
L:1/8
Q:1/4=156
M:2/2
K:C
V:1 treble nm="Cantus" snm="C"
V:2 alto2 nm="Altus" snm="A"
V:3 alto nm="Tenor" snm="T"
V:4 tenor nm="Bassus" snm="B"
V:1
 x8 | x8 |[M:4/2] z16 | z16 | z16 | z16 | z16 | A12 A4 | c8 d8 | e16 | z8 A8 | c4 c4 B6 e2 | %12
w: |||||||Be- ne-|di- *|cta|et|ve- ne- ra- bi-|
 d4 c4 B8 | A6 B2 c2 d2 e4 | e4 d8 ^c4 | z4 f4 e8 | c4 A4 _B4 A4- | A2 GF G4 F2 G2 A2 B2 | %18
w: lis es, Vir-|go _ _ _ _|Ma- ri- a:|quae si-|ne ta- ctu pu-|* * * * do- * * *|
 c2 Bc d4 e8 | z4 d4 f6 f2 | e4 c4 e4 f4- | f2 e2 e8 d4 | e8 A6 B2 | c4 B4 z8 | d4 d8 c4 | %25
w: * * * * ris|in- ven- ta|es Ma- ter sal-|* * * va-|to- * *|* ris,|in- ven- ta|
 A8 c4 B4 | c4 c4 A6 B2 | c2 d2 e4 A6 B2 | c4 B4 B4 G4 | B4 A8 ^G4 | !fermata!A16 |] %31
w: es Ma- ter|sal- va- to- *|* * * ris, _|_ Ma- ter sal-|va- to- *|ris.|
V:2
 x8 | x8 |[M:4/2][K:treble] z16 | z16 | z16 | z16 | z16 | z16 | z16 | A,12 A,4 | C8 D8 | E16 | %12
w: |||||||||Be- ne-|di- *|cta|
 z8 E8 | F4 F4 E6 A2 | G4 F4 E8 | D8 C4 E4- | E4 D8 C4 | D4 z2 D2 A8 | A4 F4 G4 A4 | _B8 A4 A4 | %20
w: et|ve- ne- ra- bi-|lis es, Vir-|* go Ma-|* * ri-|a: quae si-|ne ta- ctu pu-|do- ris, quae|
 c8 c4 A4 | B4 c4 A8 | A4 c4 c4 A4 | G8 C8 | D4 G4 F4 E4- | E4 D4 E8- | E8 z4 A4 | A4 E4 E4 A4- | %28
w: si- ne ta-|ctu pu- do-|ris in- ven- ta|es Ma-|ter sal- va- to-|* * ris,|_ in-|ven- ta es Ma-|
 A4 G4 E6 F2 | G4 E4 E8 | E16 |] %31
w: * ter sal- *|* va- to-|ris.|
V:3
 x8 | x8 |[M:4/2][K:treble-8] z16 | z16 | z8 A8- | A4 A4 c8 | d8 e8 | z4 d4 f4 f4 | e6 a2 g4 f4 | %9
w: ||||Be-|* ne- di-|* cta|et ve- ne-|ra- bi- lis es,|
 e8 A8 | z4 e4 f4 f4 | e6 a2 g4 g4 | f2 d2 a6 gf g4 | a4 d4 A8 | c4 d4 A8 | A4 A4 c6 d2 | %16
w: Vir- go,|et ve- ne-|ra- bi- lis es,|Vir- * * * * *|go, es, Vir-|go Ma- ri-|a: quae si- ne|
 e4 f4 z4 f4 | f4 d4 c8 | A8 c8 | d8 z4 d4 | a8 a4 f4 | g4 a4 f6 ed | c2 d2 e8 d4 | z4 e4 e4 c4 | %24
w: ta- ctu in-|ven- ta es|Ma- *|ter, quae|si- ne ta-|ctu pu- do- * *|* * * ris|in- ven- ta|
 B8 z8 | z4 a4 a4 g4 | e8 f8 | e4 c8 d4 | e6 f2 g4 e4- | e2 d2 c4 B8 | A16 |] %31
w: es,|in- ven- ta|es Ma-|ter sal- va-|to- * * *||ris.|
V:4
 x8 | x8 |[M:4/2][K:bass] D,12 D,4 | F,8 G,8 | A,8 z4 D,4 | F,4 F,4 E,6 A,2 | G,4 F,4 E,4 D,2 C,2 | %7
w: ||Be- ne-|di- *|cta et|ve- ne- ra- bi-|lis es, Vir- * *|
 D,8 D,4 D,4 | A,2 B,2 C2 A,2 B,2 C2 D4- | D4 C2 B,2 C8 | A,6 G,2 F,2 E,2 D,4 | A,8 z8 | z16 | %13
w: * go Ma-|ri- * * * * * *|||a:||
 z16 | z16 | D,8 A,8 | A,4 F,4 G,4 A,4 | _B,8 A,4 F,4 | F,4 D,4 C,8 | G,8 D,8 | z16 | z16 | %22
w: ||quae si-|ne ta- ctu pu-|do- ris in-|ven- ta es|Ma- ter,|||
 A,4 A,8 F,4 | E,8 A,8 | G,8 A,4 A,4- | A,4 F,4 E,8 | A,8 D,8 | A,12 F,4 | E,16- | E,16 | A,16 |] %31
w: in- ven- ta|es Ma-|ter, in- ven-|* ta es|Ma- ter|sal- va-|to-||ris.|

